modules/stroke-7/icons/photo-gallery.svg

<?xml version="1.0" encoding="utf-8"?>
<!-- Generated by IcoMoon.io -->
<!DOCTYPE svg PUBLIC "-//W3C//DTD SVG 1.1//EN" "http://www.w3.org/Graphics/SVG/1.1/DTD/svg11.dtd">
<svg version="1.1" xmlns="http://www.w3.org/2000/svg" xmlns:xlink="http://www.w3.org/1999/xlink" width="32" height="32" viewBox="0 0 32 32">
<g id="icomoon-ignore">
</g>
<path d="M26.662 8.536v-4.265h-25.057v19.192h3.732v4.265h25.057v-19.192h-3.732zM2.672 22.398v-17.060h22.924v3.199h-20.259v13.861h-2.666zM29.328 26.663h-22.924v-17.060h22.924v17.060z" fill="#000000"></path>
</svg>

<svg xmlns="http://www.w3.org/2000/svg" width="32" height="32"><path d="M26.662 8.536V4.271H1.605v19.192h3.732v4.265h25.057V8.536h-3.732zM2.672 22.398V5.338h22.924v3.199H5.337v13.861H2.671zm26.656 4.265H6.404V9.603h22.924v17.06z"/></svg>
